icons/op-alarm-24.svg

<svg width="24" height="24" viewBox="0 0 24 24" fill="none" xmlns="http://www.w3.org/2000/svg">
<path d="M12 6.73438C12.4142 6.72976 12.7542 7.0614 12.7588 7.47559L12.7695 9.47559V12.3223L15.4307 13.8594C15.7892 14.0665 15.9121 14.5251 15.7051 14.8838C15.4979 15.2423 15.0393 15.3652 14.6807 15.1582L11.6494 13.4082C11.5028 13.3235 11.3983 13.1955 11.3369 13.0508C11.3308 13.0372 11.3266 13.0228 11.3213 13.0088C11.3124 12.9838 11.3021 12.9594 11.2959 12.9336C11.2805 12.8751 11.2703 12.8142 11.2695 12.751L11.2588 7.49219C11.2542 7.07813 11.586 6.73914 12 6.73438Z" fill="#636C76"/>
<path fill-rule="evenodd" clip-rule="evenodd" d="M12 2.50293C17.5226 2.5031 21.9998 6.98036 22 12.5029C22 15.058 21.0416 17.3896 19.4648 19.1572L20.7803 20.4727C21.073 20.7655 21.0729 21.2403 20.7803 21.5332C20.4874 21.826 20.0126 21.826 19.7197 21.5332L18.3848 20.1992C16.8327 21.4883 14.4997 22.4755 12 22.4756C9.50012 22.4755 7.16632 21.4884 5.61426 20.1992L4.28027 21.5332C3.98738 21.826 3.51259 21.826 3.21973 21.5332C2.92709 21.2403 2.92701 20.7655 3.21973 20.4727L4.53516 19.1572C2.95844 17.3896 2 15.058 2 12.5029C2.0002 6.98036 6.47742 2.50311 12 2.50293ZM12 3.97559C7.30577 3.97576 3.50006 7.78133 3.5 12.4756C3.50006 17.1698 7.30576 20.9754 12 20.9756C16.6942 20.9754 20.4999 17.1698 20.5 12.4756C20.4999 7.78133 16.6942 3.97576 12 3.97559Z" fill="#636C76"/>
<path d="M6.68066 1.10059C7.03934 0.893536 7.49795 1.01638 7.70508 1.375C7.91216 1.73368 7.78928 2.19227 7.43066 2.39942L4.39941 4.14942C4.04069 4.35652 3.58211 4.23372 3.375 3.875C3.16797 3.51632 3.29078 3.0577 3.64941 2.85059L6.68066 1.10059Z" fill="#636C76"/>
<path d="M16.375 1.375C16.5821 1.01637 17.0407 0.89356 17.3994 1.10059L20.4307 2.85059C20.7893 3.05769 20.9121 3.51631 20.7051 3.875C20.498 4.23372 20.0394 4.35652 19.6807 4.14942L16.6494 2.39942C16.2908 2.19226 16.1679 1.73367 16.375 1.375Z" fill="#636C76"/>
</svg>

<svg xmlns="http://www.w3.org/2000/svg" width="24" height="24" viewBox="0 0 24 24"><path d="M12 6.734a.751.751 0 0 1 .759.742l.011 2v2.846l2.661 1.537a.751.751 0 0 1-.75 1.299l-3.032-1.75a.748.748 0 0 1-.312-.357l-.016-.042c-.009-.025-.019-.05-.025-.075a.697.697 0 0 1-.026-.183l-.011-5.259A.75.75 0 0 1 12 6.734Z"/><path d="M12 2.503c5.523 0 10 4.477 10 10a9.96 9.96 0 0 1-2.535 6.654l1.315 1.316a.749.749 0 1 1-1.06 1.06l-1.335-1.334C16.833 21.488 14.5 22.476 12 22.476s-4.834-.988-6.386-2.277L4.28 21.533a.749.749 0 1 1-1.06-1.06l1.315-1.316A9.96 9.96 0 0 1 2 12.503c0-5.523 4.477-10 10-10Zm0 1.473a8.5 8.5 0 1 0 0 17 8.5 8.5 0 0 0 0-17ZM6.681 1.101a.75.75 0 1 1 .75 1.298l-3.032 1.75a.748.748 0 1 1-.75-1.298l3.032-1.75Zm9.694.274a.75.75 0 0 1 1.024-.274l3.032 1.75a.75.75 0 0 1-.75 1.298l-3.032-1.75a.75.75 0 0 1-.274-1.024Z"/></svg>
